src/images/icons/wallet.svg

<svg viewBox="0 0 30 30" version="1.1"><path d="M 27.483401,8.2034275 H 3.0428277 a 3.4565524,3.4408904 0 0 1 0.775345,-2.161134 3.5944035,3.5781169 0 0 1 2.813118,-1.013065 H 27.396876 V 3.9999125 H 6.1143417 v 0.03855 a 4.345739,4.3260477 0 0 0 -3.075734,1.326085 4.6932201,4.6719546 0 0 0 -1.017792,3.370696 V 25.486223 a 0.51734442,0.51500024 0 0 0 0.516615,0.513864 H 27.483385 A 0.51798547,0.51563846 0 0 0 28,25.486224 V 8.7185385 a 0.51734442,0.51500024 0 0 0 -0.516615,-0.51496 z M 26.966785,24.972813 H 3.0548827 V 9.2327435 H 26.96678 Z m -5.773726,-5.076171 a 2.5849645,2.5732518 0 1 0 -2.584973,-2.573215 2.5873633,2.5756397 0 0 0 2.584973,2.573215 z m 0,-4.11719 a 1.5509787,1.543951 0 1 1 -1.550999,1.543975 1.5539774,1.5469361 0 0 1 1.550999,-1.543975 z" /></svg>

<?xml version="1.0" encoding="UTF-8"?>
<svg version="1.1" viewBox="0 0 30 30" xmlns="http://www.w3.org/2000/svg">
<path d="m27.483 8.2034h-24.441a3.4566 3.4409 0 0 1 0.77534-2.1611 3.5944 3.5781 0 0 1 2.8131-1.0131h20.766v-1.0293h-21.283v0.03855a4.3457 4.326 0 0 0-3.0757 1.3261 4.6932 4.672 0 0 0-1.0178 3.3707v16.751a0.51734 0.515 0 0 0 0.51662 0.51386h24.946a0.51799 0.51564 0 0 0 0.51662-0.51386v-16.768a0.51734 0.515 0 0 0-0.51662-0.51496zm-0.51662 16.769h-23.912v-15.74h23.912zm-5.7737-5.0762a2.585 2.5733 0 1 0-2.585-2.5732 2.5874 2.5756 0 0 0 2.585 2.5732zm0-4.1172a1.551 1.544 0 1 1-1.551 1.544 1.554 1.5469 0 0 1 1.551-1.544z"/>
</svg>
